X:414
T:Chantreuse,The. RH.414
R:jig
S:Rev.R.Harrison’s MS,c1815,Cumbria
O:England
A:Temple Sowerby,Cumbria
Z:vmp.Simon Wilson. Review PJH, 2008.
M:6/8
L:1/8
Q:3/8=100
K:A
c|A2A AGA|B2G E2G|A2A c2A|(B3 c2)c|!
A2A AGF|G2A Bcd|E2E EFG|A3- A2:|!
|:e|a2e a/g/fa|a2f e2c|ABA cde|f2B B2e|!
a2e a/g/fb|a2f ecA|E2E EFG|(A3 A2)e|!
a2e a/g/fb|a2fe2c|A2Ac2e|f2B B2d|!
c2e ega|d2f fab|E2E EFG|A3- A2|]

